material/.icons/material/phone-hangup.svg

<svg xmlns="http://www.w3.org/2000/svg" viewBox="0 0 24 24"><path d="M12 9c-1.6 0-3.15.25-4.6.72v3.1c0 .4-.23.74-.56.9-.98.49-1.87 1.12-2.67 1.85-.17.18-.42.29-.67.29-.3 0-.55-.12-.73-.3L.29 13.08a.99.99 0 01-.29-.7c0-.28.11-.53.29-.71C3.34 8.77 7.46 7 12 7c4.54 0 8.66 1.77 11.71 4.67.18.18.29.43.29.71 0 .27-.11.52-.29.7l-2.48 2.48c-.18.18-.43.3-.73.3a.98.98 0 01-.68-.29c-.79-.73-1.68-1.36-2.66-1.85a.996.996 0 01-.56-.9v-3.1C15.15 9.25 13.6 9 12 9z"/></svg>

<?xml version="1.0" encoding="UTF-8"?><!DOCTYPE svg PUBLIC "-//W3C//DTD SVG 1.1//EN" "http://www.w3.org/Graphics/SVG/1.1/DTD/svg11.dtd"><svg xmlns="http://www.w3.org/2000/svg" xmlns:xlink="http://www.w3.org/1999/xlink" version="1.1" id="mdi-phone-hangup" width="24" height="24" viewBox="0 0 24 24"><path d="M12,9C10.4,9 8.85,9.25 7.4,9.72V12.82C7.4,13.22 7.17,13.56 6.84,13.72C5.86,14.21 4.97,14.84 4.17,15.57C4,15.75 3.75,15.86 3.5,15.86C3.2,15.86 2.95,15.74 2.77,15.56L0.29,13.08C0.11,12.9 0,12.65 0,12.38C0,12.1 0.11,11.85 0.29,11.67C3.34,8.77 7.46,7 12,7C16.54,7 20.66,8.77 23.71,11.67C23.89,11.85 24,12.1 24,12.38C24,12.65 23.89,12.9 23.71,13.08L21.23,15.56C21.05,15.74 20.8,15.86 20.5,15.86C20.25,15.86 20,15.75 19.82,15.57C19.03,14.84 18.14,14.21 17.16,13.72C16.83,13.56 16.6,13.22 16.6,12.82V9.72C15.15,9.25 13.6,9 12,9Z" /></svg>
